icon-themes/breeze_svg/cmd/lc_extrusiontiltright.svg

<svg viewBox="0 0 24 24" xmlns="http://www.w3.org/2000/svg"><path d="m8.5 5c-.277 0-.5.223-.5.5s.223.5.5.5.5-.223.5-.5-.223-.5-.5-.5zm-3 2c-.277 0-.5.223-.5.5s.223.5.5.5.5-.223.5-.5-.223-.5-.5-.5zm-1 3c-.277 0-.5.223-.5.5s.223.5.5.5.5-.223.5-.5-.223-.5-.5-.5zm11.064453 2-.675781.71875 2.240234 2.28125h-2.240234-.888672v1h.888672 2.240234l-2.240234 2.28125.675781.71875 3.251953-3.28125.183594-.21875-.183594-.21875zm-10.064453 1c-.277 0-.5.223-.5.5s.223.5.5.5.5-.223.5-.5-.223-.5-.5-.5zm3 2c-.277 0-.5.223-.5.5s.223.5.5.5.5-.223.5-.5-.223-.5-.5-.5zm3 0a.5.5 0 0 0 -.5.5.5.5 0 0 0 .5.5.5.5 0 0 0 .5-.5.5.5 0 0 0 -.5-.5z" fill="#4d4d4d"/><path d="m11 4v16h1v-16z" fill="#1d99f3"/></svg>

<svg xmlns="http://www.w3.org/2000/svg" viewBox="0 0 24 24">
 <path 
     style="fill:#4d4d4d" 
     d="M 8.5 5 C 8.223 5 8 5.223 8 5.5 C 8 5.777 8.223 6 8.5 6 C 8.777 6 9 5.777 9 5.5 C 9 5.223 8.777 5 8.5 5 z M 5.5 7 C 5.223 7 5 7.223 5 7.5 C 5 7.777 5.223 8 5.5 8 C 5.777 8 6 7.777 6 7.5 C 6 7.223 5.777 7 5.5 7 z M 4.5 10 C 4.223 10 4 10.223 4 10.5 C 4 10.777 4.223 11 4.5 11 C 4.777 11 5 10.777 5 10.5 C 5 10.223 4.777 10 4.5 10 z M 15.564453 12 L 14.888672 12.71875 L 17.128906 15 L 14.888672 15 L 14 15 L 14 16 L 14.888672 16 L 17.128906 16 L 14.888672 18.28125 L 15.564453 19 L 18.816406 15.71875 L 19 15.5 L 18.816406 15.28125 L 15.564453 12 z M 5.5 13 C 5.223 13 5 13.223 5 13.5 C 5 13.777 5.223 14 5.5 14 C 5.777 14 6 13.777 6 13.5 C 6 13.223 5.777 13 5.5 13 z M 8.5 15 C 8.223 15 8 15.223 8 15.5 C 8 15.777 8.223 16 8.5 16 C 8.777 16 9 15.777 9 15.5 C 9 15.223 8.777 15 8.5 15 z M 11.5 15 A 0.5 0.5 0 0 0 11 15.5 A 0.5 0.5 0 0 0 11.5 16 A 0.5 0.5 0 0 0 12 15.5 A 0.5 0.5 0 0 0 11.5 15 z "
     />
 <path 
     style="fill:#1d99f3" 
     d="M 11 4 L 11 20 L 12 20 L 12 4 L 11 4 z "
     />
 </svg>
